X:7
T:scales_a_major
C:Beringer and Dunhill
%%score { ( 1 ) | ( 2 ) }
M:7/4
K:Amaj
V:1 treble
V:2 bass octave=-1
V:1
L:1/16
A,B,CD EFGA Bcde fgag fedc BAGF EDCB,:|A,4|:
CDEF GABc defg abc'b agfe dcBA GFED:|C4|:
A,B,CD EFGA Bcde fgag fedc BAGF EDCB,:|A,4|]
V:2
L:1/16
A,B,CD EFGA Bcde fgag fedc BAGF EDCB,:|A,4|:
A,B,CD EFGA Bcde fgag fedc BAGF EDCB,:|A,4|:
CDEF GABc [K:clef=treble octave=-1] defg abc'b agfe [K:clef=bass octave=-1] dcBA GFED:|C4|]
